img/beard-admiral.svg

<svg width="52" height="49" viewBox="0 0 52 49" fill="none" xmlns="http://www.w3.org/2000/svg">
	<path d="M51.4339 0H51.1913C48.8561 7.6154 48.2294 16.9044 41.7294 20.4398C40.5264 17.1223 37.5747 15.5972 34.2084 14.1415C32.0653 13.2205 29.6089 11.6063 27.5365 11.5271C27.0086 11.4493 26.4698 11.5619 26.0202 11.844C25.5706 11.5619 25.0318 11.4493 24.5039 11.5271C22.4821 11.6063 19.965 13.2205 17.832 14.1415C14.4658 15.5972 11.514 17.1124 10.311 20.4398C3.80093 16.9044 3.18429 7.6154 0.849145 0H0.606532C0.333159 0.773154 0.13019 1.5685 0 2.37672C0 4.27809 0.545879 23.6285 1.9409 30.5408C3.1944 36.7698 8.08709 41.2658 12.8585 44.207C16.1843 46.2569 21.4611 49 26 49C30.5389 49 35.8359 46.2569 39.1415 44.207C43.9129 41.2361 48.8056 36.7698 50.0591 30.5408C51.4541 23.6087 52 4.27809 52 2.37672C51.883 1.56972 51.6936 0.774397 51.4339 0V0ZM37.4028 27.7878C37.1501 29.3228 35.7247 31.135 34.0062 31.234C30.9736 31.3925 29.4471 26.8569 26.0607 26.8965C22.6742 26.9361 21.1275 31.3925 18.1151 31.234C16.3966 31.135 14.9611 29.3228 14.7185 27.7878C14.6055 26.7929 14.6976 25.7858 14.9893 24.8264C15.281 23.867 15.7664 22.9747 16.4168 22.2025C17.5288 21.1429 19.2675 21.2815 21.1477 21.0141C22.9493 20.8813 24.665 20.2069 26.0607 19.0831C27.4563 20.2069 29.172 20.8813 30.9736 21.0141C32.8538 21.2815 34.5925 21.1429 35.7045 22.2025C36.3549 22.9747 36.8403 23.867 37.132 24.8264C37.4237 25.7858 37.5158 26.7929 37.4028 27.7878Z" fill="#826550" />
</svg>

<svg width="52" height="49" fill="none" xmlns="http://www.w3.org/2000/svg"><path d="M51.434 0h-.243c-2.335 7.615-2.962 16.904-9.462 20.44-1.203-3.318-4.154-4.843-7.52-6.299-2.144-.92-4.6-2.535-6.673-2.614a2.24 2.24 0 00-1.516.317 2.24 2.24 0 00-1.516-.317c-2.022.08-4.539 1.694-6.672 2.615-3.366 1.455-6.318 2.97-7.521 6.298C3.801 16.904 3.184 7.615.849 0H.607A13.633 13.633 0 000 2.377C0 4.278.546 23.629 1.94 30.54c1.254 6.229 6.147 10.725 10.918 13.666C16.184 46.257 21.462 49 26 49s9.836-2.743 13.142-4.793c4.77-2.97 9.664-7.437 10.917-13.666C51.454 23.609 52 4.278 52 2.377A13.621 13.621 0 0051.434 0zM37.403 27.788c-.253 1.535-1.678 3.347-3.397 3.446-3.032.158-4.559-4.377-7.945-4.338-3.387.04-4.933 4.496-7.946 4.338-1.718-.099-3.154-1.911-3.396-3.446a7.332 7.332 0 01.27-2.962 7.428 7.428 0 011.428-2.623c1.112-1.06 2.85-.921 4.73-1.189a8.875 8.875 0 004.914-1.93 8.875 8.875 0 004.913 1.93c1.88.268 3.619.129 4.73 1.189a7.428 7.428 0 011.428 2.623c.292.96.384 1.967.27 2.962z" fill="#826550"/></svg>
